X:1
T:This My Plea
T:Bentley DeForest Ackley (1872-1958)
T:This My Plea
T:Public Domain
T:Public Domain
C:Bentley DeForest Ackley (1872-1958)
Z:Public Domain
%%score ( 1 2 ) ( 3 4 )
L:1/8
M:3/4
K:Db
V:1 treble 
V:2 treble 
V:3 bass 
V:4 bass 
V:1
 [FA][FB] [Fc]2 [Fd]2 | [Gc][CE] [EG]4 | [EG][EA] [Gc]2 [Ge]2 | [Fd][DF] [FA]4 | %4
w: 1.~What I am, Thine|eye can see,|Yet I come, O|Lord, to Thee.|
w: 2.~As I am, I|seek Thy face,|Kneel- ing at the|door of grace;|
w: 3.~As I am, O|bless- èd Lord,|I be- lieve and|trust Thy Word;|
w: 4.~Lost, but found, my|sins for- giv’n,|Child of God and|heir of Heav’n;|
 [FA][FB] [Fc]2 [Fd]2 | [Ec][EB] (E2 _G2) | [Fd][DF] [Ec]2 [DB]2 | [DF][D=G] [CA]4 || %8
w: Though my sins are|crim- son red, *|for me Thy blood|was shed. *|
w: O for- give this|heart of mine, *|me now and seal|me Thine. *|
w: Let my soul no|long- er roam, *|O take the wan-|d’rer home. *|
w: Lost, but found, what|joy is mine! *|dost cleanse and keep|me Thine. *|
"^Refrain" [DA][DF] [FB]3 [FA] | [Fd][FB] [Gc]4 | [EG][EA] [Gc]3 [GB] | [FA][EG] [DF]4 | %12
w: ||||
w: ||||
w: ||||
w: ||||
 [FA][FB] [Fc]2 [Fd]2 | [A=d][Ge] (G2 =E2) | [FA][Fd] [FA]3 [DF] | [CE]2 [A,D]4 |] %16
w: ||||
w: ||||
w: ||||
w: ||||
V:2
 x6 | x6 | x6 | x6 | x6 | x2 e4 | x6 | x6 || x6 | x6 | x6 | x6 | x6 | x2 B4 | x6 | x6 |] %16
w: |||||Yet|||||||||||
w: |||||Cleanse|||||||||||
w: |||||Take,|||||||||||
w: |||||Thou|||||||||||
V:3
 [D,D][D,D] [D,A,]2 [D,A,]2 | [E,A,][A,,A,] [A,,A,]4 | [A,C][A,C] [A,E]2 [A,C]2 | %3
w: ~ ~ ~ ~|~ ~ ~|~ ~ ~ ~|
 [D,D][D,A,] [D,D]4 | [D,D][D,D] [D,A,]2 [D,A,]2 | [E,A,][D,=G,] [C,A,]4 | %6
w: ~ ~ ~|~ ~ ~ ~|~ ~ ~|
 [D,A,][B,,B,] [E,A,]2 [E,=G,]2 | [E,A,][E,B,] (A,2 _G,2) || [D,F,][D,A,] [D,D]3 [D,D] | %9
w: ~ ~ ~ ~|~ ~ ~ *|my plea, my on-|
 [D,A,][D,D] [A,E]4 | [A,C][A,C] [A,E]3 [A,C] | [A,D]A, [D,A,]4 | [D,D][D,D] [D,A,]2 [D,A,]2 | %13
w: ly plea: Through|Thy of- fering once|for me, I|may cast my- self|
 [F,B,][G,B,] (G,2 =G,2) | [A,D]A, [A,D]3 [A,,A,] | [A,,G,]2 [D,F,]4 |] %16
w: on Thee, Je- *|my Re- deem- er.||
V:4
 x6 | x6 | x6 | x6 | x6 | x6 | x6 | x2 A,,4 || x6 | x6 | x6 | x6 | x6 | x2 D4 | x6 | x6 |] %16
w: |||||||This||||||sus,|||

